src/assets/images/icons/icon-star-filled.svg

<svg width="21" height="19" viewBox="0 0 21 19" fill="none" xmlns="http://www.w3.org/2000/svg">
<path opacity="0.6" d="M15.7764 8.7L13.3064 8.49L12.1064 8.39L11.6364 7.28L10.6664 5L9.6964 7.28L9.2264 8.39L8.0264 8.49L5.5564 8.7L7.4364 10.33L8.3464 11.12L8.0764 12.29L7.5064 14.71L9.6364 13.43L10.6664 12.8L11.6964 13.43L13.8264 14.71L13.2564 12.29L12.9864 11.12L13.8964 10.33L15.7764 8.7Z" fill="#0938E3"/>
<path d="M20.5564 7.24L13.3664 6.63L10.5564 0L7.7464 6.63L0.556396 7.24L6.0164 11.97L4.3764 19L10.5564 15.27L16.7364 19L15.0964 11.97L20.5564 7.24ZM13.1464 12.42L13.7064 14.83L11.5864 13.55L10.5564 12.93L9.5264 13.55L7.4064 14.83L7.9664 12.42L8.2364 11.24L7.3264 10.45L5.4464 8.82L7.9164 8.61L9.1164 8.51L9.5864 7.4L10.5564 5.13L11.5264 7.42L11.9964 8.53L13.1964 8.63L15.6664 8.84L13.7864 10.47L12.8764 11.26L13.1464 12.42Z" fill="#163860"/>
</svg>

<svg xmlns="http://www.w3.org/2000/svg" width="21" height="19" fill="none"><path fill="#0938E3" d="m15.776 8.7-2.47-.21-1.2-.1-.47-1.11-.97-2.28-.97 2.28-.47 1.11-1.2.1-2.47.21 1.88 1.63.91.79-.27 1.17-.57 2.42 2.13-1.28 1.03-.63 1.03.63 2.13 1.28-.57-2.42-.27-1.17.91-.79 1.88-1.63Z" opacity=".6"/><path fill="#163860" d="m20.556 7.24-7.19-.61L10.556 0l-2.81 6.63-7.19.61 5.46 4.73L4.376 19l6.18-3.73 6.18 3.73-1.64-7.03 5.46-4.73Zm-7.41 5.18.56 2.41-2.12-1.28-1.03-.62-1.03.62-2.12 1.28.56-2.41.27-1.18-.91-.79-1.88-1.63 2.47-.21 1.2-.1.47-1.11.97-2.27.97 2.29.47 1.11 1.2.1 2.47.21-1.88 1.63-.91.79.27 1.16Z"/></svg>
